SVG_Azure_Grouped/Dynamics 365/Application Marketing.svg

<?xml version="1.0" encoding="UTF-8" standalone="no"?>
<!-- Generated by Microsoft Visio, SVG Export Application Marketing.svg Page-1 -->

<svg
   xmlns:dc="http://purl.org/dc/elements/1.1/"
   xmlns:cc="http://creativecommons.org/ns#"
   xmlns:rdf="http://www.w3.org/1999/02/22-rdf-syntax-ns#"
   xmlns:svg="http://www.w3.org/2000/svg"
   xmlns="http://www.w3.org/2000/svg"
   xmlns:sodipodi="http://sodipodi.sourceforge.net/DTD/sodipodi-0.dtd"
   xmlns:inkscape="http://www.inkscape.org/namespaces/inkscape"
   width="0.7749939in"
   height="0.77534986in"
   viewBox="0 0 55.799559 55.825328"
   xml:space="preserve"
   class="st6"
   version="1.1"
   id="svg68"
   sodipodi:docname="Application Marketing.svg"
   style="font-size:12px;overflow:visible;color-interpolation-filters:sRGB;fill:none;fill-rule:evenodd;stroke-linecap:square;stroke-miterlimit:3"
   inkscape:version="0.92.5 (2060ec1f9f, 2020-04-08)"><metadata
   id="metadata72"><rdf:RDF><cc:Work
       rdf:about=""><dc:format>image/svg+xml</dc:format><dc:type
         rdf:resource="http://purl.org/dc/dcmitype/StillImage" /></cc:Work></rdf:RDF></metadata><sodipodi:namedview
   pagecolor="#ffffff"
   bordercolor="#666666"
   borderopacity="1"
   objecttolerance="10"
   gridtolerance="10"
   guidetolerance="10"
   inkscape:pageopacity="0"
   inkscape:pageshadow="2"
   inkscape:window-width="640"
   inkscape:window-height="480"
   id="namedview70"
   showgrid="false"
   inkscape:zoom="1.8365233"
   inkscape:cx="36.608123"
   inkscape:cy="17.742805"
   inkscape:window-x="0"
   inkscape:window-y="0"
   inkscape:window-maximized="0"
   inkscape:current-layer="svg68" />
	<style
   type="text/css"
   id="style2">
	<![CDATA[
		.st1 {fill:url(#grad0-7);stroke:none;stroke-linecap:butt;stroke-width:0.75}
		.st2 {fill:#000000;fill-opacity:0.24;stroke:none;stroke-linecap:butt;stroke-width:0.75}
		.st3 {fill:#000000;fill-opacity:0.32;stroke:none;stroke-linecap:butt;stroke-width:0.75}
		.st4 {fill:url(#grad0-15);stroke:none;stroke-linecap:butt;stroke-width:0.75}
		.st5 {fill:url(#grad0-23);stroke:none;stroke-linecap:butt;stroke-width:0.75}
		.st6 {fill:none;fill-rule:evenodd;font-size:12px;overflow:visible;stroke-linecap:square;stroke-miterlimit:3}
	]]>
	</style>

	<defs
   id="Patterns_And_Gradients">
		<linearGradient
   id="grad0-7"
   x1="0.87826736"
   y1="41.774503"
   x2="55.923943"
   y2="41.774503"
   gradientTransform="scale(1.0136982,0.98648691)"
   gradientUnits="userSpaceOnUse">
			<stop
   offset="0"
   stop-color="#922717"
   stop-opacity="1"
   id="stop4" />
			<stop
   offset="0.515"
   stop-color="#d83b01"
   stop-opacity="1"
   id="stop6" />
		</linearGradient>
		<linearGradient
   id="grad0-15"
   x1="0.88103873"
   y1="53.62198"
   x2="44.111061"
   y2="53.62198"
   gradientTransform="scale(1.0140314,0.98616277)"
   gradientUnits="userSpaceOnUse">
			<stop
   offset="0"
   stop-color="#f69b63"
   stop-opacity="1"
   id="stop9" />
			<stop
   offset="1"
   stop-color="#d83b01"
   stop-opacity="1"
   id="stop11" />
		</linearGradient>
		<linearGradient
   id="grad0-23"
   x1="0.87878551"
   y1="65.344982"
   x2="32.296895"
   y2="65.344982"
   gradientTransform="scale(1.0131005,0.9870689)"
   gradientUnits="userSpaceOnUse">
			<stop
   offset="0"
   stop-color="#f69b63"
   stop-opacity="1"
   id="stop14" />
			<stop
   offset="1"
   stop-color="#ffb685"
   stop-opacity="1"
   id="stop16" />
		</linearGradient>
	</defs>
	<g
   id="g66"
   transform="translate(-6.5596753,-5.67081)">
		<title
   id="title20">Page-1</title>
		<g
   id="group21284-1"
   transform="translate(5.66929,-34.0157)">
			<title
   id="title22">Application Marketing.21284</title>
			<g
   id="group21285-2">
				<title
   id="title24">Sheet.21285</title>
				<g
   id="group21286-3">
					<title
   id="title26">Sheet.21286</title>
					<g
   id="shape21287-4"
   transform="translate(0,-1.52349)">
						<title
   id="title28">Sheet.21287</title>
						<path
   d="M 1.67,45.62 C 0,43.99 1.19,41.21 3.56,41.21 h 50.47 c 1.47,0 2.66,1.16 2.66,2.58 v 49.13 c 0,2.3 -2.86,3.46 -4.54,1.83 z"
   class="st1"
   id="path30"
   inkscape:connector-curvature="0"
   style="fill:url(#grad0-7);stroke:none;stroke-width:0.75;stroke-linecap:butt" />
					</g>
					<g
   id="shape21288-8"
   transform="translate(0.0394803,-1.31492)">
						<title
   id="title33">Sheet.21288</title>
						<path
   d="M 1.68,57.3 C 0,55.67 1.19,52.88 3.56,52.88 h 38.51 c 1.47,0 2.66,1.16 2.66,2.59 v 37.45 c 0,2.3 -2.87,3.46 -4.55,1.83 z"
   class="st2"
   id="path35"
   inkscape:connector-curvature="0"
   style="fill:#000000;fill-opacity:0.23999999;stroke:none;stroke-width:0.75;stroke-linecap:butt" />
					</g>
					<g
   id="shape21289-10"
   transform="translate(0.0394803,-0.0218528)">
						<title
   id="title38">Sheet.21289</title>
						<path
   d="M 1.68,57.3 C 0,55.67 1.19,52.88 3.56,52.88 h 38.51 c 1.47,0 2.66,1.16 2.66,2.59 v 37.45 c 0,2.3 -2.87,3.46 -4.55,1.83 z"
   class="st3"
   id="path40"
   inkscape:connector-curvature="0"
   style="fill:#000000;fill-opacity:0.31999996;stroke:none;stroke-width:0.75;stroke-linecap:butt" />
					</g>
					<g
   id="shape21290-12"
   transform="translate(0.0394803,-1.5606)">
						<title
   id="title43">Sheet.21290</title>
						<path
   d="M 1.68,57.3 C 0,55.67 1.19,52.88 3.56,52.88 h 38.51 c 1.47,0 2.66,1.16 2.66,2.59 v 37.45 c 0,2.3 -2.87,3.46 -4.55,1.83 z"
   class="st4"
   id="path45"
   inkscape:connector-curvature="0"
   style="fill:url(#grad0-15);stroke:none;stroke-width:0.75;stroke-linecap:butt" />
					</g>
					<g
   id="shape21291-16"
   transform="translate(0.0326697,-1.29307)">
						<title
   id="title48">Sheet.21291</title>
						<path
   d="M 1.67,68.91 C 0,67.28 1.19,64.5 3.56,64.5 h 26.5 c 1.47,0 2.66,1.16 2.66,2.59 v 25.83 c 0,2.3 -2.87,3.46 -4.55,1.83 z"
   class="st2"
   id="path50"
   inkscape:connector-curvature="0"
   style="fill:#000000;fill-opacity:0.23999999;stroke:none;stroke-width:0.75;stroke-linecap:butt" />
					</g>
					<g
   id="shape21292-18"
   transform="translate(0.0326697)">
						<title
   id="title53">Sheet.21292</title>
						<path
   d="M 1.67,68.91 C 0,67.28 1.19,64.5 3.56,64.5 h 26.5 c 1.47,0 2.66,1.16 2.66,2.59 v 25.83 c 0,2.3 -2.87,3.46 -4.55,1.83 z"
   class="st3"
   id="path55"
   inkscape:connector-curvature="0"
   style="fill:#000000;fill-opacity:0.31999996;stroke:none;stroke-width:0.75;stroke-linecap:butt" />
					</g>
					<g
   id="shape21293-20"
   transform="translate(0.0326697,-1.53875)">
						<title
   id="title58">Sheet.21293</title>
						<path
   d="M 1.67,68.91 C 0,67.28 1.19,64.5 3.56,64.5 h 26.5 c 1.47,0 2.66,1.16 2.66,2.59 v 25.83 c 0,2.3 -2.87,3.46 -4.55,1.83 z"
   class="st5"
   id="path60"
   inkscape:connector-curvature="0"
   style="fill:url(#grad0-23);stroke:none;stroke-width:0.75;stroke-linecap:butt" />
					</g>
				</g>
			</g>
		</g>
	</g>
</svg>

<?xml version="1.0" encoding="UTF-8" standalone="no"?>
<!DOCTYPE svg PUBLIC "-//W3C//DTD SVG 1.1//EN" "http://www.w3.org/Graphics/SVG/1.1/DTD/svg11.dtd">
<!-- Generated by Microsoft Visio, SVG Export Application Marketing.svg Page-1 -->
<svg xmlns="http://www.w3.org/2000/svg" xmlns:xlink="http://www.w3.org/1999/xlink" xmlns:ev="http://www.w3.org/2001/xml-events"
		width="0.944882in" height="1.33858in" viewBox="0 0 68.0315 96.378" xml:space="preserve" color-interpolation-filters="sRGB"
		class="st6">
	<style type="text/css">
	<![CDATA[
		.st1 {fill:url(#grad0-7);stroke:none;stroke-linecap:butt;stroke-width:0.75}
		.st2 {fill:#000000;fill-opacity:0.24;stroke:none;stroke-linecap:butt;stroke-width:0.75}
		.st3 {fill:#000000;fill-opacity:0.32;stroke:none;stroke-linecap:butt;stroke-width:0.75}
		.st4 {fill:url(#grad0-15);stroke:none;stroke-linecap:butt;stroke-width:0.75}
		.st5 {fill:url(#grad0-23);stroke:none;stroke-linecap:butt;stroke-width:0.75}
		.st6 {fill:none;fill-rule:evenodd;font-size:12px;overflow:visible;stroke-linecap:square;stroke-miterlimit:3}
	]]>
	</style>

	<defs id="Patterns_And_Gradients">
		<linearGradient id="grad0-7" x1="0" y1="0" x2="1" y2="0" gradientTransform="rotate(-121.92974403628 0.5 0.5)">
			<stop offset="0" stop-color="#922717" stop-opacity="1"/>
			<stop offset="0.515" stop-color="#d83b01" stop-opacity="1"/>
		</linearGradient>
		<linearGradient id="grad0-15" x1="0" y1="0" x2="1" y2="0" gradientTransform="rotate(55.161497672539 0.5 0.5)">
			<stop offset="0" stop-color="#f69b63" stop-opacity="1"/>
			<stop offset="1" stop-color="#d83b01" stop-opacity="1"/>
		</linearGradient>
		<linearGradient id="grad0-23" x1="0" y1="0" x2="1" y2="0" gradientTransform="rotate(-127.47171856721 0.5 0.5)">
			<stop offset="0" stop-color="#f69b63" stop-opacity="1"/>
			<stop offset="1" stop-color="#ffb685" stop-opacity="1"/>
		</linearGradient>
	</defs>
	<g>
		<title>Page-1</title>
		<g id="group20809-1" transform="translate(5.66929,-34.0157)">
			<title>Application Marketing.20809</title>
			<g id="group20810-2">
				<title>Sheet.20810</title>
				<g id="group20811-3">
					<title>Sheet.20811</title>
					<g id="shape20812-4" transform="translate(0,-1.52349)">
						<title>Sheet.20812</title>
						<path d="M1.67 45.62 C0 43.99 1.19 41.21 3.56 41.21 L54.03 41.21 C55.5 41.21 56.69 42.37 56.69 43.79 L56.69
									 92.92 C56.69 95.22 53.83 96.38 52.15 94.75 L1.67 45.62 Z" class="st1"/>
					</g>
					<g id="shape20813-8" transform="translate(0.0394803,-1.31492)">
						<title>Sheet.20813</title>
						<path d="M1.68 57.3 C0 55.67 1.19 52.88 3.56 52.88 L42.07 52.88 C43.54 52.88 44.73 54.04 44.73 55.47 L44.73
									 92.92 C44.73 95.22 41.86 96.38 40.18 94.75 L1.68 57.3 Z" class="st2"/>
					</g>
					<g id="shape20814-10" transform="translate(0.0394803,-0.0218528)">
						<title>Sheet.20814</title>
						<path d="M1.68 57.3 C0 55.67 1.19 52.88 3.56 52.88 L42.07 52.88 C43.54 52.88 44.73 54.04 44.73 55.47 L44.73
									 92.92 C44.73 95.22 41.86 96.38 40.18 94.75 L1.68 57.3 Z" class="st3"/>
					</g>
					<g id="shape20815-12" transform="translate(0.0394803,-1.5606)">
						<title>Sheet.20815</title>
						<path d="M1.68 57.3 C0 55.67 1.19 52.88 3.56 52.88 L42.07 52.88 C43.54 52.88 44.73 54.04 44.73 55.47 L44.73
									 92.92 C44.73 95.22 41.86 96.38 40.18 94.75 L1.68 57.3 Z" class="st4"/>
					</g>
					<g id="shape20816-16" transform="translate(0.0326697,-1.29307)">
						<title>Sheet.20816</title>
						<path d="M1.67 68.91 C0 67.28 1.19 64.5 3.56 64.5 L30.06 64.5 C31.53 64.5 32.72 65.66 32.72 67.09 L32.72
									 92.92 C32.72 95.22 29.85 96.38 28.17 94.75 L1.67 68.91 Z" class="st2"/>
					</g>
					<g id="shape20817-18" transform="translate(0.0326697,-2.84217E-13)">
						<title>Sheet.20817</title>
						<path d="M1.67 68.91 C0 67.28 1.19 64.5 3.56 64.5 L30.06 64.5 C31.53 64.5 32.72 65.66 32.72 67.09 L32.72
									 92.92 C32.72 95.22 29.85 96.38 28.17 94.75 L1.67 68.91 Z" class="st3"/>
					</g>
					<g id="shape20818-20" transform="translate(0.0326697,-1.53875)">
						<title>Sheet.20818</title>
						<path d="M1.67 68.91 C0 67.28 1.19 64.5 3.56 64.5 L30.06 64.5 C31.53 64.5 32.72 65.66 32.72 67.09 L32.72
									 92.92 C32.72 95.22 29.85 96.38 28.17 94.75 L1.67 68.91 Z" class="st5"/>
					</g>
				</g>
			</g>
		</g>
	</g>
</svg>
